systematic/svg/Fairchild - Channel F.svg

<?xml version="1.0" encoding="UTF-8" standalone="no"?>
<svg
   xmlns:dc="http://purl.org/dc/elements/1.1/"
   xmlns:cc="http://creativecommons.org/ns#"
   xmlns:rdf="http://www.w3.org/1999/02/22-rdf-syntax-ns#"
   xmlns:svg="http://www.w3.org/2000/svg"
   xmlns="http://www.w3.org/2000/svg"
   viewBox="0 0 320 320"
   height="320"
   width="320"
   xml:space="preserve"
   version="1.1"
   id="svg2"><metadata
     id="metadata8"><rdf:RDF><cc:Work
         rdf:about=""><dc:format>image/svg+xml</dc:format><dc:type
           rdf:resource="http://purl.org/dc/dcmitype/StillImage" /></cc:Work></rdf:RDF></metadata><defs
     id="defs6"><clipPath
       id="clipPath16"
       clipPathUnits="userSpaceOnUse"><path
         id="path18"
         d="M 0,256 256,256 256,0 0,0 0,256 Z" /></clipPath><clipPath
       id="clipPath24"
       clipPathUnits="userSpaceOnUse"><path
         id="path26"
         d="M 4,232 252,232 252,24 4,24 4,232 Z" /></clipPath><clipPath
       id="clipPath62"
       clipPathUnits="userSpaceOnUse"><path
         id="path64"
         d="M 0,256 256,256 256,0 0,0 0,256 Z" /></clipPath></defs><g
     transform="matrix(1.25,0,0,-1.25,0,320)"
     id="g10"><g
       id="g12"><g
         clip-path="url(#clipPath16)"
         id="g14"><g
           id="g20"><g
             id="g22" /><g
             id="g28"><g
               style="opacity:0.5"
               id="g30"
               clip-path="url(#clipPath24)"><path
                 id="path32"
                 style="fill:#ffffff;fill-opacity:1;fill-rule:nonzero;stroke:none"
                 d="M 252,24 4,24 4,232 252,232 252,24 Z" /></g></g></g></g></g><path
       id="path34"
       style="fill:#262626;fill-opacity:1;fill-rule:nonzero;stroke:none"
       d="m 244,36 -232,0 0,184 232,0 0,-184 z" /><g
       transform="translate(132,76)"
       id="g36"><path
         id="path38"
         style="fill:#333333;fill-opacity:1;fill-rule:nonzero;stroke:none"
         d="M 0,0 -94.222,0 -109.778,-28 0,-28 0,0 Z" /></g><path
       id="path40"
       style="fill:#191919;fill-opacity:1;fill-rule:nonzero;stroke:none"
       d="m 244,216 -232,0 0,8 232,0 0,-8 z" /><path
       id="path42"
       style="fill:#3d0000;fill-opacity:1;fill-rule:nonzero;stroke:none"
       d="m 244,44 -232,0 0,-12 232,0 0,12 z" /><path
       id="path44"
       style="fill:#262626;fill-opacity:1;fill-rule:nonzero;stroke:none"
       d="m 120,56 -76,0 0,12 76,0 0,-12 z" /><path
       id="path46"
       style="fill:#666666;fill-opacity:1;fill-rule:nonzero;stroke:none"
       d="m 108,56 12,0 0,12 -12,0 0,-12 z" /><path
       id="path48"
       style="fill:#666666;fill-opacity:1;fill-rule:nonzero;stroke:none"
       d="m 92,56 12,0 0,12 -12,0 0,-12 z" /><path
       id="path50"
       style="fill:#666666;fill-opacity:1;fill-rule:nonzero;stroke:none"
       d="m 76,56 12,0 0,12 -12,0 0,-12 z" /><path
       id="path52"
       style="fill:#666666;fill-opacity:1;fill-rule:nonzero;stroke:none"
       d="m 60,56 12,0 0,12 -12,0 0,-12 z" /><path
       id="path54"
       style="fill:#d4a600;fill-opacity:1;fill-rule:nonzero;stroke:none"
       d="m 44,56 12,0 0,12 -12,0 0,-12 z" /><path
       id="path56"
       style="fill:#0d0d0d;fill-opacity:1;fill-rule:nonzero;stroke:none"
       d="m 136,80 -116,0 0,20 116,0 0,-20 z" /><g
       id="g58"><g
         clip-path="url(#clipPath62)"
         id="g60"><g
           transform="translate(226,184)"
           id="g66"><path
             id="path68"
             style="fill:#333333;fill-opacity:1;fill-rule:nonzero;stroke:none"
             d="m 0,0 -196,0 c -1.104,0 -2,0.896 -2,2 l 0,8 c 0,1.104 0.896,2 2,2 L 0,12 c 1.104,0 2,-0.896 2,-2 L 2,2 C 2,0.896 1.104,0 0,0" /></g><path
           id="path70"
           style="fill:#a3834a;fill-opacity:1;fill-rule:nonzero;stroke:none"
           d="m 224,192 -192,0 0,2 192,0 0,-2 z" /><path
           id="path72"
           style="fill:#a3834a;fill-opacity:1;fill-rule:nonzero;stroke:none"
           d="m 223.5,186 -191,0 0,2 191,0 0,-2 z" /><g
           transform="translate(20,100)"
           id="g74"><path
             id="path76"
             style="fill:#333333;fill-opacity:1;fill-rule:nonzero;stroke:none"
             d="M 0,0 12,-20 -8,-56 0,0 Z" /></g><path
           id="path78"
           style="fill:#191919;fill-opacity:1;fill-rule:nonzero;stroke:none"
           d="m 236,80 -100,0 0,20 100,0 0,-20 z" /><g
           transform="translate(236,100)"
           id="g80"><path
             id="path82"
             style="fill:#333333;fill-opacity:1;fill-rule:nonzero;stroke:none"
             d="M 0,0 -12,-20 8,-56 0,0 Z" /></g><g
           transform="translate(12,32)"
           id="g84"><path
             id="path86"
             style="fill:#3d0000;fill-opacity:1;fill-rule:nonzero;stroke:none"
             d="M 0,0 8,68 8,184 0,192 0,0 Z" /></g><g
           transform="translate(244,32)"
           id="g88"><path
             id="path90"
             style="fill:#3d0000;fill-opacity:1;fill-rule:nonzero;stroke:none"
             d="m 0,0 -8,68 0,116 8,8 L 0,0 Z" /></g><path
           id="path92"
           style="fill:#0d0d0d;fill-opacity:1;fill-rule:nonzero;stroke:none"
           d="m 220,64 -72,0 0,16 72,0 0,-16 z" /><path
           id="path94"
           style="fill:#191919;fill-opacity:1;fill-rule:nonzero;stroke:none"
           d="m 220,48 -72,0 0,8 72,0 0,-8 z" /><path
           id="path96"
           style="fill:#191919;fill-opacity:1;fill-rule:nonzero;stroke:none"
           d="m 220,58 -72,0 0,2 72,0 0,-2 z" /><g
           transform="translate(225.5996,92)"
           id="g98"><path
             id="path100"
             style="fill:#0d0d0d;fill-opacity:1;fill-rule:nonzero;stroke:none"
             d="m 0,0 -73.6,0 0,-2 72.401,0 L 0,0 Z" /></g><g
           transform="translate(228,96)"
           id="g102"><path
             id="path104"
             style="fill:#0d0d0d;fill-opacity:1;fill-rule:nonzero;stroke:none"
             d="m 0,0 -76,0 0,-2 74.8,0 1.2,2 z" /></g><g
           transform="translate(220.7998,84)"
           id="g106"><path
             id="path108"
             style="fill:#0d0d0d;fill-opacity:1;fill-rule:nonzero;stroke:none"
             d="m 0,0 -68.8,0 0,-2 67.6,0 1.2,2 z" /></g><g
           transform="translate(223.2002,88)"
           id="g110"><path
             id="path112"
             style="fill:#0d0d0d;fill-opacity:1;fill-rule:nonzero;stroke:none"
             d="m 0,0 -71.2,0 0,-2 70,0 1.2,2 z" /></g></g></g></g></svg>

<?xml version="1.0" encoding="UTF-8" standalone="no"?>
<svg
   xmlns:dc="http://purl.org/dc/elements/1.1/"
   xmlns:cc="http://creativecommons.org/ns#"
   xmlns:rdf="http://www.w3.org/1999/02/22-rdf-syntax-ns#"
   xmlns:svg="http://www.w3.org/2000/svg"
   xmlns="http://www.w3.org/2000/svg"
   viewBox="0 0 341.33334 341.33334"
   height="256"
   width="256"
   xml:space="preserve"
   id="svg2"
   version="1.1"><metadata
     id="metadata8"><rdf:RDF><cc:Work
         rdf:about=""><dc:format>image/svg+xml</dc:format><dc:type
           rdf:resource="http://purl.org/dc/dcmitype/StillImage" /></cc:Work></rdf:RDF></metadata><defs
     id="defs6"><clipPath
       id="clipPath18"
       clipPathUnits="userSpaceOnUse"><path
         id="path16"
         d="M 0,256 H 256 V 0 H 0 Z" /></clipPath><clipPath
       id="clipPath26"
       clipPathUnits="userSpaceOnUse"><path
         id="path24"
         d="M 4,232 H 252 V 24 H 4 Z" /></clipPath><clipPath
       id="clipPath64"
       clipPathUnits="userSpaceOnUse"><path
         id="path62"
         d="M 0,256 H 256 V 0 H 0 Z" /></clipPath></defs><g
     transform="matrix(1.3333333,0,0,-1.3333333,0,341.33333)"
     id="g10"><g
       id="g12"><g
         clip-path="url(#clipPath18)"
         id="g14"><g
           id="g20"><g
             id="g22" /><g
             id="g32"><g
               style="opacity:0.5"
               id="g30"
               clip-path="url(#clipPath26)"><path
                 id="path28"
                 style="fill:#ffffff;fill-opacity:1;fill-rule:nonzero;stroke:none"
                 d="M 252,24 H 4 v 208 h 248 z" /></g></g></g></g></g><path
       id="path34"
       style="fill:#262626;fill-opacity:1;fill-rule:nonzero;stroke:none"
       d="M 244,36 H 12 v 184 h 232 z" /><g
       transform="translate(132,76)"
       id="g36"><path
         id="path38"
         style="fill:#333333;fill-opacity:1;fill-rule:nonzero;stroke:none"
         d="m 0,0 h -94.222 l -15.556,-28 H 0 Z" /></g><path
       id="path40"
       style="fill:#191919;fill-opacity:1;fill-rule:nonzero;stroke:none"
       d="M 244,216 H 12 v 8 h 232 z" /><path
       id="path42"
       style="fill:#3d0000;fill-opacity:1;fill-rule:nonzero;stroke:none"
       d="M 244,44 H 12 V 32 h 232 z" /><path
       id="path44"
       style="fill:#262626;fill-opacity:1;fill-rule:nonzero;stroke:none"
       d="M 120,56 H 44 v 12 h 76 z" /><path
       id="path46"
       style="fill:#666666;fill-opacity:1;fill-rule:nonzero;stroke:none"
       d="m 108,56 h 12 v 12 h -12 z" /><path
       id="path48"
       style="fill:#666666;fill-opacity:1;fill-rule:nonzero;stroke:none"
       d="m 92,56 h 12 V 68 H 92 Z" /><path
       id="path50"
       style="fill:#666666;fill-opacity:1;fill-rule:nonzero;stroke:none"
       d="M 76,56 H 88 V 68 H 76 Z" /><path
       id="path52"
       style="fill:#666666;fill-opacity:1;fill-rule:nonzero;stroke:none"
       d="M 60,56 H 72 V 68 H 60 Z" /><path
       id="path54"
       style="fill:#d4a600;fill-opacity:1;fill-rule:nonzero;stroke:none"
       d="M 44,56 H 56 V 68 H 44 Z" /><path
       id="path56"
       style="fill:#0d0d0d;fill-opacity:1;fill-rule:nonzero;stroke:none"
       d="M 136,80 H 20 v 20 h 116 z" /><g
       id="g58"><g
         clip-path="url(#clipPath64)"
         id="g60"><g
           transform="translate(226,184)"
           id="g66"><path
             id="path68"
             style="fill:#333333;fill-opacity:1;fill-rule:nonzero;stroke:none"
             d="m 0,0 h -196 c -1.104,0 -2,0.896 -2,2 v 8 c 0,1.104 0.896,2 2,2 H 0 c 1.104,0 2,-0.896 2,-2 V 2 C 2,0.896 1.104,0 0,0" /></g><path
           id="path70"
           style="fill:#a3834a;fill-opacity:1;fill-rule:nonzero;stroke:none"
           d="M 224,192 H 32 v 2 h 192 z" /><path
           id="path72"
           style="fill:#a3834a;fill-opacity:1;fill-rule:nonzero;stroke:none"
           d="m 223.5,186 h -191 v 2 h 191 z" /><g
           transform="translate(20,100)"
           id="g74"><path
             id="path76"
             style="fill:#333333;fill-opacity:1;fill-rule:nonzero;stroke:none"
             d="M 0,0 12,-20 -8,-56 Z" /></g><path
           id="path78"
           style="fill:#191919;fill-opacity:1;fill-rule:nonzero;stroke:none"
           d="M 236,80 H 136 v 20 h 100 z" /><g
           transform="translate(236,100)"
           id="g80"><path
             id="path82"
             style="fill:#333333;fill-opacity:1;fill-rule:nonzero;stroke:none"
             d="M 0,0 -12,-20 8,-56 Z" /></g><g
           transform="translate(12,32)"
           id="g84"><path
             id="path86"
             style="fill:#3d0000;fill-opacity:1;fill-rule:nonzero;stroke:none"
             d="m 0,0 8,68 v 116 l -8,8 z" /></g><g
           transform="translate(244,32)"
           id="g88"><path
             id="path90"
             style="fill:#3d0000;fill-opacity:1;fill-rule:nonzero;stroke:none"
             d="m 0,0 -8,68 v 116 l 8,8 z" /></g><path
           id="path92"
           style="fill:#0d0d0d;fill-opacity:1;fill-rule:nonzero;stroke:none"
           d="m 220,64 h -72 v 16 h 72 z" /><path
           id="path94"
           style="fill:#191919;fill-opacity:1;fill-rule:nonzero;stroke:none"
           d="m 220,48 h -72 v 8 h 72 z" /><path
           id="path96"
           style="fill:#191919;fill-opacity:1;fill-rule:nonzero;stroke:none"
           d="m 220,58 h -72 v 2 h 72 z" /><g
           transform="translate(225.5996,92)"
           id="g98"><path
             id="path100"
             style="fill:#0d0d0d;fill-opacity:1;fill-rule:nonzero;stroke:none"
             d="M 0,0 H -73.6 V -2 H -1.199 Z" /></g><g
           transform="translate(228,96)"
           id="g102"><path
             id="path104"
             style="fill:#0d0d0d;fill-opacity:1;fill-rule:nonzero;stroke:none"
             d="M 0,0 H -76 V -2 H -1.2 Z" /></g><g
           transform="translate(220.7998,84)"
           id="g106"><path
             id="path108"
             style="fill:#0d0d0d;fill-opacity:1;fill-rule:nonzero;stroke:none"
             d="M 0,0 H -68.8 V -2 H -1.2 Z" /></g><g
           transform="translate(223.2002,88)"
           id="g110"><path
             id="path112"
             style="fill:#0d0d0d;fill-opacity:1;fill-rule:nonzero;stroke:none"
             d="m 0,0 h -71.2 v -2 h 70 z" /></g></g></g></g></svg>
